!!!COM: Scriabin, Alexander
!!!OTL: Prelude
!!!OPR: 4 Preludes
!!!OPS: 33
!!!ONM: 1
!!!ODT: 1900
!!!AGN: Prelude
**kern	**kern
*staff2	*staff1
*clefF4	*clefG2
*k[f#c#g#d#]	*k[f#c#g#d#]
*E:	*E:
*M3/4	*M3/4
*^	*
8rc	8C#	8r
=1	=1	=1
*	*	*^
4rc	8BBL	8raa	4rc
.	8G#J	8ee	.
[2e	4.A	8f#L	4.f#
.	.	8dd#J	.
.	.	[4cc#	.
.	8G#	.	8g#
=2	=2	=2	=2
2.e]	4.F#	8cc#]	8bL
.	.	4aa	8aJ
.	.	.	4.cc#
.	8G#	8gg#	.
.	8BL	8ff#L	.
.	8AJ	8cc#J	8f#
=3	=3	=3	=3
2.c#	[2.A	4ee	2f#
.	.	8dd#L	.
.	.	8ee	.
.	.	8.ff#	[4f#
.	.	16cc#Jk	.
=4	=4	=4	=4
2d#	2A]	4.cc#	8f#L]
.	.	.	8e#XJ
.	.	.	4.g#
.	.	8b	.
4B	4A	8cc#L	.
.	.	8dd#J	8f#
=5	=5	=5	=5
2d#	2G#	8gg#L	[2.b
.	.	8ff#	.
.	.	8bb	.
.	.	8gg#J	.
4e	4c#	12eeL	.
.	.	12.ff#	.
.	.	24gg#Jk	.
=6	=6	=6	=6
2d#	2G#	8gg#L	2b]
.	.	8ff#	.
.	.	8bb	.
.	.	8gg#J	.
4e	4c#	8.eeL	4b
.	.	16dd#Jk	.
=7	=7	=7	=7
2.e	2.F#	8dd#L	2a#X
.	.	8ddnJ	.
.	.	8gg#	.
.	.	4cc#	.
.	.	.	4a#
.	.	8ccn	.
=8	=8	=8	=8
4.d#	4.B	8ccnL	4.f#
.	.	8bJ	.
.	.	4raa	.
8rc	8G#	.	8rc
4rc	8F#L	4raa	4rc
.	8C#J	.	.
=9	=9	=9	=9
4rc	8BBL	8raa	4rc
.	8G#J	8ee	.
[2e	4.A	8f#L	4.f#
.	.	8dd#J	.
.	.	[4cc#	.
.	8G#	.	8g#
=10	=10	=10	=10
2e]	4.F#	8cc#]	8bL
.	.	4aa	8aJ
.	.	.	4.cc#
.	8G#	8gg#	.
8.eL	8BL	8ff#L	.
.	8AJ	8cc#J	8f#
16d#Jk	.	.	.
=11	=11	=11	=11
2.c#	[2.A	4ee	2f#
.	.	8dd#L	.
.	.	8ee	.
.	.	8.ff#	[4f#
.	.	16cc#Jk	.
=12	=12	=12	=12
2d#	2A]	4.cc#	8f#L]
.	.	.	8e#XJ
.	.	.	4.g#
.	.	8b	.
4B	4A	8cc#L	.
.	.	8dd#J	8f#
=13	=13	=13	=13
2d#	2G#	8gg#L	[2.b
.	.	8ff#	.
.	.	8bb	.
.	.	8gg#J	.
4e	4c#	12eeL	.
.	.	12.ff#	.
.	.	24gg#Jk	.
=14	=14	=14	=14
2d#	2G#	8gg#L	2b]
.	.	8ff#	.
.	.	8bb	.
.	.	8gg#J	.
4e	4c#	8.eeL	4b
.	.	16dd#Jk	.
=15	=15	=15	=15
[2.g#	[2.e	8dd#L	[2.b
.	.	8bbJ	.
.	.	[2dd#	.
=16	=16	=16	=16
2g#_	2e_	2dd#]	2b_
8g#]	8e]	8cc#	8b]
8rc	8rEE	8raa	8rc
*v	*v	*	*
*	*v	*v
=17	=17
2.FF# 2.E 2.A#X 2.e	8r
.	8ee
.	8gn
.	4dd#
.	8cc#
=18	=18
2.BBB 2.FF# 2.E 2.An 2.e	8r
.	8cc#
.	8c#
.	4b
.	8a
=19	=19
2.BBB 2.BB 2.D# 2.A 2.d#	8r
.	8a
.	8cn
.	4g#
.	8f#
=20	=20
*^	*^
2.EE 2.E	8.CnL	8.A#XL	2.G#
.	[16BBJk	16BJk	.
.	2BB]	2e	.
*v	*v	*	*
*	*v	*v
==	==
*-	*-
!!!system-decoration: {(*)}
!!!ENC: Bryan Jacob Bell
!!!END: November 2021 to April 2022
!!!PED: Konstantin Igumnov and Yakov Milstein
!!!PTL: A.N. Skryabin: Polnoe sobranie sochinenii dlia fortepiano (Muzgiz)
